X:1
T:Martyn, 77.77 D
T:Martyn, 77.77 D
T:Simeon Butler Marsh, 1834
T:Public Domain Courtesy of the Cyber Hymnal™
C:Simeon Butler Marsh, 1834
Z:Public Domain
Z:Courtesy of the Cyber Hymnal™
%%score ( 1 2 ) ( 3 4 )
L:1/8
Q:1/4=95
M:3/4
K:F
V:1 treble 
V:2 treble 
V:3 bass 
V:4 bass 
V:1
 [FA]2 [FA] [FA]2 F | [EG]2 [EG] [EG]3 | [FA]2 [FA] [Fc]2 [GB] | [FA]3 [EG]3 | F6 | %5
 [FA]2 [FA] [FA]2 F | [EG]2 [EG] [EG]3 | [FA]2 [FA] [Fc]2 [GB] | [FA]3 [EG]3 | F6 | %10
 [Fc]2 [Ec] [Fc]2 [Fc] | [Fd]3 [Fd]3 x | [Fc]6 | [Fc]2 [Ec] [Fc]2 [Fc] | [Fd]3 [Fd]3 | [Ec]6 | %16
 [FA]2 [FA] [FA]2 F | [EG]2 [EG] [EG]3 | [FA]2 [FA] [Ac]2 [GB] | [FA]3 [EG]3 | F6 |] %21
V:2
 x5 F | x6 | x6 | x6 | F6 | x5 F | x6 | x6 | x6 | F6 | x6 | x7 | x6 | x6 | x6 | x6 | x5 F | x6 | %18
 x6 | x6 | F6 |] %21
V:3
 [F,C]2 [F,C] [F,C]2 [F,A,] | [C,C]2 [C,C] [C,C]3 | [F,C]2 [F,C] [A,,C]2 [B,,D] | [C,C]3 [C,B,]3 | %4
 [F,A,]6 | [F,C]2 [F,C] [F,C]2 [F,A,] | [C,C]2 [C,C] [C,C]3 | [F,C]2 [F,C] [A,,C]2 [B,,D] | %8
 [C,C]3 [C,B,]3 | [F,A,]6 | [F,A,]2 [G,B,] [A,C]2 [F,A,] | [B,,B,]3 B,3 D, | [F,A,]6 | %13
 [F,A,]2 [G,B,] [A,C]2 [F,A,] | [D,A,]3 [G,=B,]3 | [C,C]6 | [F,C]2 [F,C] [F,C]2 [D,=B,] | %17
 [C,C]2 [C,C] [C,C]3 | [F,C]2 [F,C] [F,C]2 [B,,D] | [C,C]3 [C,B,]3 | [F,A,]6 |] %21
V:4
 x6 | x6 | x6 | x6 | x6 | x6 | x6 | x6 | x6 | x6 | x6 | x3 B,,2 x2 | x6 | x6 | x6 | x6 | x6 | x6 | %18
 x6 | x6 | x6 |] %21

